X: 4043
M: C
L: 1/8
K: Edor	% and D
(dc) |\
(BE)E2 GAFB | AFdF DEFA |\
(BE)E2 BAFB | AFdF E2 :|\
(FE) |\
fdec dcBA | (3(Bcd) (AF) D2 |]


